FINK
CUT[MORGEN MUSS ICH FORT VON HIER]
REG[Europa, Mitteleuropa, Deutschland]
KEY[F0162  08  G 4/4]
MEL[  3_.34_3_  2_1_1_2_
    3_3_6_5_  5__.4_  3__.0_
    3_.34_3_  2_1_1_2_
    3_3_6_5_  5__.4_  3__.0_
    2_.23_3_  4_3_4_0_
    3_.34_4_  5__6_.0
    5_.43_54  3__2__  1__.0_ //] >>
FCT[Abschieds - Lied]
